static/assets/images/tokens/eurc-mono.svg

<svg width="256" height="256" viewBox="0 0 256 256" fill="none" xmlns="http://www.w3.org/2000/svg">
<path fill-rule="evenodd" clip-rule="evenodd" d="M128 0C57.3078 0 0 57.3078 0 128C0 198.692 57.3078 256 128 256C198.692 256 256 198.692 256 128C256 57.3078 198.692 0 128 0ZM77.9384 140.13L82.5761 133.869C83.1319 132.77 84.2631 132.078 85.4947 132.078H94.2647C94.2055 130.716 94.1714 129.339 94.1894 127.943C94.1894 126.534 94.2521 125.171 94.3166 123.812H80.8551C78.4224 123.812 76.843 121.247 77.9402 119.074L82.5779 112.814C83.1337 111.715 84.2613 111.021 85.4929 111.021H96.0627C97.7873 103.727 100.695 97.323 104.87 91.8642C112.014 82.5959 121.423 77.9276 133.167 77.9276C146.037 77.9276 155.83 84.0211 162.546 96.1506C163.467 97.816 162.727 99.9207 160.986 100.69L153.709 103.902C152.193 104.573 150.38 104.017 149.575 102.567C145.983 96.0968 140.381 92.1475 133.167 92.1475C123.697 91.9987 116.338 99.5281 112.814 111.021H136.913C139.346 111.021 140.925 113.588 139.828 115.759L135.191 122.02C134.635 123.118 133.507 123.812 132.276 123.812H110.627C110.553 125.166 110.514 126.539 110.528 127.943C110.528 129.359 110.575 130.732 110.65 132.078H136.913C139.346 132.078 140.925 134.644 139.828 136.817L135.191 143.077C134.635 144.176 133.507 144.869 132.276 144.869H112.837C113.825 148.05 115.123 150.952 116.754 153.553C120.928 160.273 126.376 163.598 133.167 163.598C140.667 163.598 146.345 159.179 149.762 152.245C150.534 150.68 152.413 150.013 154.007 150.725L161.246 153.959C162.944 154.717 163.682 156.75 162.84 158.406C156.223 171.421 146.313 177.958 133.167 177.958C114.65 178.237 100.83 164.708 96.0305 144.868H80.8533C78.4206 144.868 76.8412 142.301 77.9384 140.13ZM43.7728 122.608C46.4081 80.5289 80.2832 46.5479 122.353 43.7889C144.468 42.3386 164.916 49.4826 180.726 62.1768C182.26 63.4084 184.458 63.3528 185.926 62.0424L192.127 56.51C193.967 54.8697 193.929 51.9619 192.029 50.3915C173.587 35.1498 149.643 26.3386 123.667 27.434C72.1479 29.6067 30.2252 71.0472 27.4895 122.541C26.3063 144.814 32.4141 165.633 43.6311 182.832C44.9739 184.892 47.8512 185.249 49.6869 183.612L55.8808 178.085C57.3454 176.778 57.6609 174.605 56.6122 172.947C47.4909 158.516 42.6111 141.151 43.7728 122.608ZM206.313 72.3863C208.149 70.7496 211.026 71.1081 212.369 73.1662C223.584 90.3619 229.69 111.181 228.509 133.452C225.777 184.946 183.854 226.388 132.335 228.562C106.357 229.658 82.413 220.848 63.9695 205.605C62.0692 204.035 62.0316 201.127 63.8709 199.486L70.0701 193.954C71.5384 192.644 73.7363 192.588 75.2708 193.82C91.0826 206.514 111.529 213.658 133.643 212.208C175.713 209.449 209.588 175.469 212.225 133.393C213.389 114.849 208.509 97.4826 199.388 83.0512C198.339 81.393 198.655 79.2202 200.119 77.9133L206.313 72.3863Z" fill="black"/>
</svg>

<svg xmlns="http://www.w3.org/2000/svg" fill="none" viewBox="0 0 256 256"><path fill="#000" fill-rule="evenodd" d="M128 0C57.308 0 0 57.308 0 128s57.308 128 128 128 128-57.308 128-128S198.692 0 128 0M77.938 140.13l4.638-6.261a3.27 3.27 0 0 1 2.919-1.791h8.77a73 73 0 0 1-.076-4.135c0-1.409.063-2.772.128-4.131H80.855c-2.433 0-4.012-2.565-2.915-4.738l4.638-6.26a3.27 3.27 0 0 1 2.915-1.793h10.57c1.724-7.294 4.632-13.698 8.807-19.157 7.144-9.268 16.553-13.936 28.297-13.936 12.87 0 22.663 6.093 29.379 18.223.921 1.665.181 3.77-1.56 4.539l-7.277 3.212c-1.516.671-3.329.115-4.134-1.335-3.592-6.47-9.194-10.42-16.408-10.42-9.47-.148-16.829 7.381-20.353 18.874h24.099c2.433 0 4.012 2.567 2.915 4.738l-4.637 6.261a3.27 3.27 0 0 1-2.915 1.792h-21.649a64 64 0 0 0-.099 4.131c0 1.416.047 2.789.122 4.135h26.263c2.433 0 4.012 2.566 2.915 4.739l-4.637 6.26a3.27 3.27 0 0 1-2.915 1.792h-19.439c.988 3.181 2.286 6.083 3.917 8.684 4.174 6.72 9.622 10.045 16.413 10.045 7.5 0 13.178-4.419 16.595-11.353a3.253 3.253 0 0 1 4.245-1.52l7.239 3.234c1.698.758 2.436 2.791 1.594 4.447-6.617 13.015-16.527 19.552-29.673 19.552-18.517.279-32.337-13.25-37.136-33.09H80.853c-2.432 0-4.012-2.567-2.915-4.738m-34.165-17.522c2.635-42.08 36.51-76.06 78.58-78.82 22.115-1.45 42.563 5.695 58.373 18.389a4.024 4.024 0 0 0 5.2-.135l6.201-5.532c1.84-1.64 1.802-4.548-.098-6.118-18.442-15.242-42.386-24.053-68.362-22.958-51.52 2.173-93.442 43.613-96.178 95.107-1.183 22.273 4.925 43.092 16.142 60.291 1.343 2.06 4.22 2.417 6.056.78l6.194-5.527a4.014 4.014 0 0 0 .731-5.138c-9.121-14.431-14-31.796-12.84-50.339m162.54-50.222c1.836-1.636 4.713-1.278 6.056.78 11.215 17.196 17.321 38.015 16.14 60.286-2.732 51.494-44.655 92.936-96.174 95.11-25.978 1.096-49.922-7.714-68.366-22.957-1.9-1.57-1.937-4.478-.098-6.119l6.2-5.532a4.025 4.025 0 0 1 5.2-.134c15.812 12.694 36.258 19.838 58.372 18.388 42.07-2.759 75.945-36.739 78.582-78.815 1.164-18.544-3.716-35.91-12.837-50.342a4.014 4.014 0 0 1 .731-5.138z" clip-rule="evenodd"/></svg>
